icons/facebook.svg

<svg width="24" height="24" viewBox="0 0 24 24" fill="none" xmlns="http://www.w3.org/2000/svg">
<path d="M12.8192 24H1.32462C0.592836 24 0 23.4068 0 22.6753V1.32461C0 0.592925 0.592929 0 1.32462 0H22.6755C23.407 0 24 0.592925 24 1.32461V22.6753C24 23.4069 23.4069 24 22.6755 24H16.5597V14.7059H19.6793L20.1464 11.0838H16.5597V8.77132C16.5597 7.72264 16.8509 7.008 18.3546 7.008L20.2727 7.00717V3.76755C19.9409 3.7234 18.8024 3.62479 17.4778 3.62479C14.7124 3.62479 12.8192 5.31276 12.8192 8.4126V11.0838H9.69156V14.7059H12.8192V24Z" fill="#686A70"/>
</svg>

<svg class="icon" xmlns="http://www.w3.org/2000/svg" width="24" height="24" viewBox="0 0 24 24">
    <g fill="none" fill-rule="evenodd">
        <g fill="#ffffff" fill-rule="nonzero">
            <path d="M12.82 24H1.324C.593 24 0 23.407 0 22.675V1.325C0 .593.593 0 1.325 0h21.35C23.407 0 24 .593 24 1.325v21.35c0 .732-.593 1.325-1.325 1.325H16.56v-9.294h3.12l.466-3.622H16.56V8.77c0-1.048.29-1.763 1.795-1.763h1.918v-3.24c-.332-.045-1.47-.143-2.795-.143-2.766 0-4.659 1.688-4.659 4.788v2.67H9.692v3.623h3.127V24z" transform="translate(-628 -388) translate(628 388)"/>
        </g>
    </g>
</svg>
